X:15609
T:Slow Air,A,(Harmony). BC.52b
M:C|
L:1/4
Q:80
S:Benjamin Cooke MS.circa 1770, F.Kidson Coll.
R:Air
O:England
A:x
Z:John Bagnall
K:D
A | d d d A | f/g/f/e/ d/c/d/e/ | f g f/g/f/e/ | d3 |!|
d/e/ | f f a g/f/ | e e g f/e/ | d d d f | A3 d/e/ |! f f a g/f/ | e e e
/
g/f/e/ | d "tr"e A2| d3 |]


